flags/id-jb.svg

<svg width="512" height="512" viewBox="0 0 512 512" fill="none" xmlns="http://www.w3.org/2000/svg">
<rect width="512" height="512" fill="var(--flag-palette-dark-green, #496e2d)"/>
<path d="M228.998 172C228.036 171.611 226.96 171.611 225.998 172C220.998 177 207.998 189 204.998 208C199.998 233 213.998 260 238.998 275C239.818 275.441 240.765 275.582 241.678 275.4C242.591 275.217 243.411 274.722 243.998 274C244.37 273.557 244.641 273.039 244.794 272.482C244.946 271.924 244.976 271.34 244.881 270.769C244.786 270.199 244.568 269.656 244.243 269.178C243.918 268.7 243.493 268.298 242.998 268C220.998 254 208.998 231 212.998 209C215.998 193 226.998 182 231.998 179C232.424 178.625 232.765 178.163 232.998 177.646C233.232 177.128 233.352 176.567 233.352 176C233.352 175.432 233.232 174.871 232.998 174.354C232.765 173.837 232.424 173.375 231.998 173C231.592 172.638 231.117 172.363 230.601 172.191C230.085 172.019 229.54 171.954 228.998 172Z" fill="var(--flag-palette-yellow, #ffda44)"/>
<path d="M283 172.001C282.458 171.955 281.913 172.02 281.397 172.192C280.881 172.364 280.406 172.639 280 173.001C279.628 173.443 279.357 173.961 279.204 174.519C279.052 175.077 279.022 175.661 279.117 176.231C279.212 176.801 279.43 177.344 279.755 177.822C280.08 178.301 280.505 178.703 281 179.001C285 183.001 296 193.001 299 209.001C303 231.001 292 254.001 269 268.001C268.505 268.299 268.08 268.701 267.755 269.179C267.43 269.657 267.212 270.2 267.117 270.77C267.022 271.34 267.052 271.925 267.204 272.482C267.357 273.04 267.628 273.558 268 274.001C268.587 274.723 269.407 275.218 270.32 275.401C271.233 275.583 272.18 275.442 273 275.001C298 260.001 312 233.001 307 208.001C304 189.001 291 177.001 286 173.001C285.594 172.639 285.119 172.364 284.603 172.192C284.087 172.02 283.542 171.955 283 172.001ZM255 176.001C255 176.001 243 182.001 243 194.001C243 206.001 262 218.001 262 227.001C262 237.001 253 240.001 253 240.001V262.001H259V243.001C259 243.001 278 234.001 271 208.001C266 190.001 255 194.001 255 176.001Z" fill="var(--flag-palette-white, #eeeeee)"/>
<path d="M179 300L191 344L256 376L321 344L333 300H179Z" fill="var(--flag-palette-blue, #0052b4)"/>
<path d="M243 267L227 287L222 278H190L180 300H333L322 278H290L285 287L269 267H256H243Z" fill="var(--flag-palette-black, #333333)"/>
<path d="M256 141C232 141 210 154 194 175C178 196 169 224 169 256C169 269 170 282 173 294L160 308C168.045 331.825 181.439 352.117 198.511 366.343C215.583 380.57 235.577 388.102 256 388C276.423 388.102 296.417 380.57 313.489 366.343C330.561 352.117 343.955 331.825 352 308L339 294C342 282 344 269 344 256C344 224 334 196 318 175C311.017 164.906 301.778 156.578 291.016 150.676C280.254 144.774 268.265 141.461 256 141ZM256 148C278 148 298 159 313 179C328.699 201.608 337.113 228.475 337.113 256C337.113 283.525 328.699 310.392 313 333C306.758 342.51 298.321 350.381 288.402 355.95C278.482 361.519 267.37 364.623 256 365C234 365 214 353 199 333C185 314 176 286 176 256C176 226 185 199 199 179C214 159 234 148 256 148Z" fill="var(--flag-palette-yellow, #ffda44)"/>
<path d="M260 264C260 261.791 258.209 260 256 260C253.791 260 252 261.791 252 264V283C252 285.209 253.791 287 256 287C258.209 287 260 285.209 260 283V264Z" fill="var(--flag-palette-bright-red, #d80027)"/>
</svg>

<svg xmlns="http://www.w3.org/2000/svg" width="512" height="512" fill="none"><path fill="var(--flag-palette-dark-green, #496e2d)" d="M0 0h512v512H0z"/><path fill="var(--flag-palette-yellow, #ffda44)" d="M229 172a4 4 0 0 0-3 0c-5 5-18 17-21 36-5 25 9 52 34 67a4 4 0 0 0 5-1 4 4 0 0 0-1-6c-22-14-34-37-30-59 3-16 14-27 19-30a4 4 0 0 0 0-6 4 4 0 0 0-3-1"/><path fill="var(--flag-palette-white, #eeeeee)" d="M283 172a4 4 0 0 0-3 1 4 4 0 0 0 1 6c4 4 15 14 18 30 4 22-7 45-30 59a4 4 0 0 0-1 6 4 4 0 0 0 5 1c25-15 39-42 34-67a58 58 0 0 0-22.4-35.8zm-28 4s-12 6-12 18 19 24 19 33c0 10-9 13-9 13v22h6v-19s19-9 12-35c-5-18-16-14-16-32"/><path fill="var(--flag-palette-blue, #0052b4)" d="m179 300 12 44 65 32 65-32 12-44z"/><path fill="var(--flag-palette-black, #333333)" d="m243 267-16 20-5-9h-32l-10 22h153l-11-22h-32l-5 9-16-20z"/><path fill="var(--flag-palette-yellow, #ffda44)" d="M256 141c-24 0-46 13-62 34s-25 49-25 81c0 13 1 26 4 38l-13 14c8 23.8 21.4 44.1 38.5 58.3A89 89 0 0 0 256 388a89 89 0 0 0 57.5-21.7c17-14.2 30.5-34.5 38.5-58.3l-13-14c3-12 5-25 5-38 0-32-10-60-26-81a79 79 0 0 0-62-34m0 7c22 0 42 11 57 31a135 135 0 0 1 0 154 71 71 0 0 1-57 32c-22 0-42-12-57-32-14-19-23-47-23-77s9-57 23-77c15-20 35-31 57-31"/><path fill="var(--flag-palette-bright-red, #d80027)" d="M260 264a4 4 0 0 0-8 0v19a4 4 0 0 0 8 0z"/></svg>
